build/documents/PPTSolid.svg

<svg xmlns="http://www.w3.org/2000/svg" fill="none" viewBox="0 0 24 24" focusable="false"><path d="M0 0H24V24H0z"/><path fill="#74767B" fill-rule="evenodd" d="M17.65 3.3501C19.3069 3.3501 20.65 4.69324 20.65 6.3501L20.65 16.3501C20.65 18.007 19.3069 19.3501 17.65 19.3501L9.65 19.3501C7.99314 19.3501 6.65 18.007 6.65 16.3501L6.65 6.3501C6.65 4.69324 7.99314 3.3501 9.65 3.3501L17.65 3.3501ZM12.3278 8.46558C12.1554 8.46558 11.9901 8.53406 11.8682 8.65596C11.7463 8.77785 11.6778 8.94319 11.6778 9.11558L11.6778 13.5812C11.6778 13.9402 11.9688 14.2312 12.3278 14.2312C12.6868 14.2312 12.9778 13.9402 12.9778 13.5812L12.9778 12.7962L13.892 12.7962C15.0878 12.7962 16.0573 11.8268 16.0573 10.6309C16.0573 9.43502 15.0878 8.46558 13.892 8.46558L12.3278 8.46558ZM4.65 8.7001C4.29101 8.7001 4 8.99111 4 9.3501L4 18.7501C4 20.545 5.45507 22.0001 7.25 22.0001L15.65 22.0001C16.009 22.0001 16.3 21.7091 16.3 21.3501C16.3 20.9911 16.009 20.7001 15.65 20.7001L7.25 20.7001C6.17304 20.7001 5.3 19.8271 5.3 18.7501L5.3 9.3501C5.3 8.99111 5.00898 8.7001 4.65 8.7001ZM13.892 11.4962L12.9778 11.4962L12.9778 9.76558L13.892 9.76558C14.3699 9.76558 14.7573 10.153 14.7573 10.6309C14.7573 11.1088 14.3699 11.4962 13.892 11.4962Z"/></svg>

<svg xmlns="http://www.w3.org/2000/svg" fill="none" viewBox="0 0 24 24" focusable="false"><path fill="#74767B" fill-rule="evenodd" d="M17.64 3.35c1.66 0 3 1.34 3 3v10c0 1.65-1.34 3-3 3h-8c-1.65 0-3-1.35-3-3v-10c0-1.66 1.35-3 3-3zm-5.32 5.11c-.17 0-.33.07-.46.19a.66.66 0 0 0-.19.46v4.47c0 .36.29.65.65.65s.65-.29.65-.65v-.79h.92a2.166 2.166 0 0 0 0-4.33zm-7.68.24c-.35 0-.64.29-.64.65v9.4A3.25 3.25 0 0 0 7.25 22h8.39c.36 0 .65-.3.65-.65 0-.36-.29-.65-.65-.65H7.25c-1.08 0-1.95-.88-1.95-1.95v-9.4c0-.36-.3-.65-.66-.65m9.25 2.79h-.92V9.76h.92c.47 0 .86.39.86.87 0 .47-.39.86-.86.86"/></svg>
